src/images_karasa_jaga_svg/cmd/sc_pararighttoleft.svg

<svg height="16" viewBox="0 0 4.2333333 4.2333335" width="16" xmlns="http://www.w3.org/2000/svg" xmlns:xlink="http://www.w3.org/1999/xlink"><linearGradient id="a"><stop offset="0" stop-color="#fff"/><stop offset="1" stop-color="#fff" stop-opacity="0"/></linearGradient><filter id="b" height="1.317541" width="1.244662" x="-.122331" y="-.15877"><feGaussianBlur stdDeviation=".27482165"/></filter><linearGradient id="c" gradientUnits="userSpaceOnUse" x1="64" x2="100" xlink:href="#a" y1="-23.999996" y2="34"/><linearGradient id="d" gradientUnits="userSpaceOnUse" x1="62.365497" x2="67.757182" xlink:href="#a" y1="6.805285" y2="-2.917434"/><linearGradient id="e" gradientUnits="userSpaceOnUse" x1="69.849998" x2="69.849998" y1="267.366666" y2="248.316668"><stop offset="0" stop-color="#5e5e5e"/><stop offset="1" stop-opacity="0"/></linearGradient><linearGradient id="f" gradientTransform="matrix(-.26458333 0 0 .26458333 224.36667 140.36665)" gradientUnits="userSpaceOnUse" x1="430" x2="430" y1="269" y2="275.0867"><stop offset="0" stop-color="#e0f4b8"/><stop offset="1" stop-color="#92c441" stop-opacity=".214592"/></linearGradient><linearGradient id="g" gradientTransform="matrix(-.26458333 0 0 .26458333 224.36667 140.36665)" gradientUnits="userSpaceOnUse" x1="429.30026" x2="429.30026" y1="273.82983" y2="271.99973"><stop offset="0" stop-color="#bbf10e"/><stop offset="1" stop-color="#5f9207"/></linearGradient><radialGradient id="h" cx="429" cy="272" gradientTransform="matrix(-.33814049 0 0 .33814049 255.92269 120.35911)" gradientUnits="userSpaceOnUse" r="4"><stop offset="0" stop-color="#033a13"/><stop offset="1" stop-color="#398c37"/></radialGradient><g transform="matrix(.03307292 0 0 .03307292 -.779991 .009075)"><path d="m55.470703 0c-17.6105-.00015818-31.886718 13.767132-31.886719 30.75.000001 16.982868 14.276219 30.750158 31.886719 30.75.17648-.0044.352918-.01031.529297-.01758v66.51758h16l-.000002-99.999996h8l.000002 99.999996h16v-112h8v-16h-8-16-8-16v.0234375c-.176362-.00922603-.3528-.0170388-.529297-.0234375z"/><path d="m56.392578 4a4.0004038 4.0004038 0 0 1 -.601562.017578c-.116604-.0061-.232935-.010931-.34961-.015625-7.328049.00773-14.599496 2.923451-19.742187 7.8828129-5.149578 4.966002-8.115234 11.900761-8.115235 18.865234.000001 6.964473 2.965657 13.899232 8.115235 18.865234 5.146796 4.96332 12.425776 7.879727 19.759765 7.882813.12525-.0035.251767-.0066.376954-.01172a4.0004038 4.0004038 0 0 1 4.164062 3.9960951v62.517578h8v-108a4.0004038 4.0004038 0 0 1 4-4h8a4.0004038 4.0004038 0 0 1 4 4v108h8v-108a4.0004038 4.0004038 0 0 1 4-4h4v-8h-4-16-8z" fill="url(#e)"/><path d="m56.392578 4c-.199795.020956-.400884.026832-.601562.017578-.116604-.0061-.232935-.010931-.34961-.015625-7.328049.00773-14.599496 2.9234507-19.742187 7.882813-5.149578 4.966002-8.115234 11.900761-8.115235 18.865234.000001 6.964473 2.965657 13.899232 8.115235 18.865234 5.146796 4.96332 12.425776 7.879727 19.759765 7.882813.12525-.0035.251767-.0066.376954-.01172 2.271285-.093 4.163516 1.722906 4.164062 3.996094v2.378906c1.330903.0749 2.664889.121149 4 .138672 1.334459-.0032 2.668444-.03514 4-.0957l-.000002-35.904293c.000223-2.209047 1.790954-3.999778 4-4h8c2.209047.000222 3.999778 1.790953 4 4l.000002 33.738275c2.735854-.611871 5.408583-1.349873 8-2.208984v-43.529297c.000223-2.209047 1.790953-3.999777 4-4h4v-8h-4-16-8z" fill="url(#c)" opacity=".57"/></g><path d="m67.757187.8390721-3.535535 4.1542524-1.85615-.265166z" fill="url(#d)" fill-rule="evenodd" filter="url(#b)" transform="matrix(.03307292 0 0 .03307292 .464691 -.015008)"/><path d="m57.150391 3.6308594.01172.234375c-.160439-.1273318-.356107-.2023265-.560549-.2148438-.123747-.00647-.243793-.01285-.361328-.017578-.01432-.0003077-.02865-.0003077-.04297 0-7.59258.00801-15.092859 3.0117638-20.433594 8.1621094-5.346309 5.155721-8.421874 12.337609-8.421875 19.585937.000001 7.248328 3.075566 14.430217 8.421875 19.585938 5.345 5.154457 12.854338 8.158911 20.453125 8.162109.0091.000125.01823.000125.02734 0 .12293-.0034.254415-.0061.390625-.01172l-.06445-1.591797c-.243073-.03554-.488903-.04862-.734374-.03906-.125187.0052-.251704.0082-.376954.01172-7.333987-.003088-14.612967-2.919495-19.759763-7.882815-5.149578-4.966002-8.115234-11.900761-8.115235-18.865234.000001-6.964473 2.965657-13.899232 8.115235-18.865234 5.142691-4.9593625 12.414138-7.8750821 19.742187-7.8828129.116675.00469.233006.00953.34961.015625.200678.00925.401767.00338.601562-.017578h15.607422 8 16 4v7.9999999h-4c-.0059-.000013-.01172-.000013-.01758 0-.531157.653273-.06657 1.630432.77539 1.630859h4c.55229.000002 1-.447714 1-1v-7.9999996c0-.5522855-.44771-1.0000019-1-1h-4-16-8zm14.832029 20.3691446c-.531156.653272-.06657 1.630431.77539 1.630859h8c.641166-.01562 1.102087-.622241.945313-1.24414-.532297-.25277-1.113863-.384823-1.703125-.386719h-8c-.0059-.000013-.01172-.000013-.01758 0zm-3.277344 3.65625c-.272631.01477-.527367.140375-.705078.347656l.000002 35.900387c-1.331556.06056-2.665541.09248-4 .0957-1.335111-.01752-2.669097-.06377-4-.138672v-2.378906c.000006-.0039.000006-.0078 0-.01172-.154048.17889-.239839.406513-.242188.642578v2.378907c.000183.530147.414064.96802.94336.998046 1.345164.0757 2.693623.122915 4.042969.140625.0052.000041.01042.000041.01563 0 1.348682-.0033 2.69717-.03645 4.042968-.09766.533913-.02401.954576-.463595.955078-.998047l-.000002-35.904293c-.01352-.563507-.489858-1.004498-1.052734-.974609zm24.000002-12.000004c-.272631.014771-.527368.140376-.705078.347656v43.525391c-2.591417.859111-5.264146 1.597113-8 2.208984l-.000002-33.738277c.000016-.0065.000016-.01302 0-.01953-.155783.180932-.24169.411632-.242188.65039l.000002 33.738278c-.000503.640834.593436 1.116747 1.21875.976562 2.766565-.61874 5.472708-1.366748 8.095704-2.236328.409231-.13556.685524-.51812.685546-.949219v-43.529298c-.01352-.563507-.489858-1.004498-1.052734-.974609z" fill="#fff" opacity=".57" transform="matrix(.03307292 0 0 .03307292 -.779991 .009075)"/><path d="m72.416016 64.259766-16 16v31.480464l16 16zm-24 26.404296a16.494068 16.494068 0 0 0 0 10.697268z" fill="#fff" fill-opacity=".849265" fill-rule="evenodd" transform="matrix(.03307292 0 0 .03307292 0 .009075)"/><g transform="translate(-108.21458 -209.14924)"><path d="m112.18333 212.06873v.52917h-1.05833v.52917l-.79375-.79375.79375-.79375v.52916z" fill="none" stroke="url(#h)" stroke-linecap="round" stroke-linejoin="round" stroke-width=".529167"/><g fill-rule="evenodd"><path d="m112.18333 212.06873v.52917h-1.05833v.52917l-.79375-.79375.79375-.79375v.52916z" fill="url(#g)"/><path d="m112.18333 212.06873v.26459h-1.85208l.79375-.79375v.52916z" fill="url(#f)"/></g></g></svg>

<?xml version="1.0" encoding="UTF-8" standalone="no"?>
<!-- Created with Inkscape (http://www.inkscape.org/) -->

<svg
   xmlns:dc="http://purl.org/dc/elements/1.1/"
   xmlns:cc="http://creativecommons.org/ns#"
   xmlns:rdf="http://www.w3.org/1999/02/22-rdf-syntax-ns#"
   xmlns:svg="http://www.w3.org/2000/svg"
   xmlns="http://www.w3.org/2000/svg"
   xmlns:xlink="http://www.w3.org/1999/xlink"
   xmlns:sodipodi="http://sodipodi.sourceforge.net/DTD/sodipodi-0.dtd"
   xmlns:inkscape="http://www.inkscape.org/namespaces/inkscape"
   width="128"
   height="128"
   viewBox="0 0 33.866666 33.866668"
   version="1.1"
   id="svg8"
   inkscape:version="0.92.3 (unknown)"
   sodipodi:docname="sc_pararighttoleft.svg"
   inkscape:export-filename="/home/rizmut/Dokumen/Rizmut/Github/libreoffice-style-karasa-jaga/build/images_karasa_jaga/cmd/sc_pararighttoleft.png"
   inkscape:export-xdpi="12"
   inkscape:export-ydpi="12">
  <defs
     id="defs2">
    <radialGradient
       id="f"
       cx="72.309822"
       cy="22.770975"
       gradientTransform="matrix(0.34106924,0.00164862,-1.0474589e-4,0.02167024,43.194434,234.33399)"
       gradientUnits="userSpaceOnUse"
       r="35.712891"
       xlink:href="#a" />
    <linearGradient
       id="a">
      <stop
         offset="0"
         stop-color="#fff"
         id="stop2" />
      <stop
         offset="1"
         stop-color="#fff"
         stop-opacity="0"
         id="stop4" />
    </linearGradient>
    <linearGradient
       gradientTransform="matrix(0.26458333,0,0,0.26458333,48.683332,233.5)"
       id="c"
       gradientUnits="userSpaceOnUse"
       x1="78.223663"
       x2="95.309601"
       y1="119.98714"
       y2="62.626804">
      <stop
         offset="0"
         stop-color="#5e5e5e"
         id="stop8" />
      <stop
         offset="1"
         stop-opacity="0"
         id="stop10" />
    </linearGradient>
    <linearGradient
       gradientTransform="matrix(0.26458333,0,0,0.26458333,48.683332,233.5)"
       id="b"
       gradientUnits="userSpaceOnUse"
       x1="25.515633"
       x2="82.713898"
       xlink:href="#a"
       y1="-93.076469"
       y2="59.479324" />
    <linearGradient
       gradientTransform="translate(-28.374051,-5.2664335)"
       id="d"
       gradientUnits="userSpaceOnUse"
       x1="90.739548"
       x2="96.131233"
       xlink:href="#a"
       y1="12.071719"
       y2="2.349" />
    <filter
       id="e"
       height="1.317541"
       width="1.244662"
       x="-0.122331"
       y="-0.15876999">
      <feGaussianBlur
         stdDeviation=".27482165"
         id="feGaussianBlur14" />
    </filter>
    <linearGradient
       gradientTransform="matrix(0.26458333,0,0,0.26458333,48.683332,233.5)"
       id="g"
       gradientUnits="userSpaceOnUse"
       x1="101.04345"
       x2="64.526085"
       xlink:href="#a"
       y1="72.676468"
       y2="-60.538036" />
    <linearGradient
       gradientTransform="translate(-28.374051,-5.2664335)"
       id="h"
       gradientUnits="userSpaceOnUse"
       x1="88.009483"
       x2="95.687553"
       xlink:href="#a"
       y1="145.50327"
       y2="62.626804" />
    <filter
       style="color-interpolation-filters:sRGB"
       id="i"
       height="1.005726"
       width="1.009696"
       x="-0.0048480001"
       y="-0.0028629999">
      <feGaussianBlur
         stdDeviation=".12613919"
         id="feGaussianBlur20" />
    </filter>
    <linearGradient
       inkscape:collect="always"
       xlink:href="#a"
       id="linearGradient1571"
       x1="64"
       y1="-23.999996"
       x2="100"
       y2="34"
       gradientUnits="userSpaceOnUse" />
    <linearGradient
       inkscape:collect="always"
       xlink:href="#a"
       id="linearGradient1575"
       gradientUnits="userSpaceOnUse"
       gradientTransform="translate(-28.374051,-5.2664335)"
       x1="90.739548"
       y1="12.071719"
       x2="96.131233"
       y2="2.349" />
    <linearGradient
       inkscape:collect="always"
       xlink:href="#c"
       id="linearGradient1583"
       x1="80"
       y1="128"
       x2="80"
       y2="56.000004"
       gradientUnits="userSpaceOnUse" />
    <linearGradient
       inkscape:collect="always"
       xlink:href="#linearGradient4118"
       id="linearGradient4892"
       gradientUnits="userSpaceOnUse"
       x1="430"
       y1="269"
       x2="430"
       y2="275.0867"
       gradientTransform="matrix(-0.26458333,0,0,0.26458333,224.36667,140.36665)" />
    <linearGradient
       id="linearGradient4118">
      <stop
         id="stop4120"
         offset="0"
         style="stop-color:#e0f4b8;stop-opacity:1" />
      <stop
         id="stop4122"
         offset="1"
         style="stop-color:#92c441;stop-opacity:0.21459228" />
    </linearGradient>
    <linearGradient
       inkscape:collect="always"
       xlink:href="#linearGradient4112"
       id="linearGradient4894"
       gradientUnits="userSpaceOnUse"
       gradientTransform="matrix(-0.26458333,0,0,0.26458333,224.36667,140.36665)"
       x1="429.30026"
       y1="273.82983"
       x2="429.30026"
       y2="271.99973" />
    <linearGradient
       id="linearGradient4112">
      <stop
         id="stop4114"
         offset="0"
         style="stop-color:#bbf10e;stop-opacity:1" />
      <stop
         id="stop4116"
         offset="1"
         style="stop-color:#5f9207;stop-opacity:1" />
    </linearGradient>
    <radialGradient
       inkscape:collect="always"
       xlink:href="#linearGradient4105"
       id="radialGradient4896"
       gradientUnits="userSpaceOnUse"
       gradientTransform="matrix(-0.33814049,0,0,0.33814049,255.92269,120.35911)"
       cx="429"
       cy="272"
       fx="429"
       fy="272"
       r="4" />
    <linearGradient
       id="linearGradient4105">
      <stop
         id="stop4107"
         offset="0"
         style="stop-color:#033a13;stop-opacity:1" />
      <stop
         id="stop4109"
         offset="1"
         style="stop-color:#398c37;stop-opacity:1" />
    </linearGradient>
  </defs>
  <sodipodi:namedview
     id="base"
     pagecolor="#ffffff"
     bordercolor="#666666"
     borderopacity="1.0"
     inkscape:pageopacity="0.0"
     inkscape:pageshadow="2"
     inkscape:zoom="1.979899"
     inkscape:cx="82.704189"
     inkscape:cy="-20.854164"
     inkscape:document-units="mm"
     inkscape:current-layer="g1597"
     showgrid="true"
     units="px"
     inkscape:window-width="1366"
     inkscape:window-height="706"
     inkscape:window-x="0"
     inkscape:window-y="0"
     inkscape:window-maximized="1"
     inkscape:snap-global="true">
    <inkscape:grid
       type="xygrid"
       id="grid1414"
       spacingx="1.0583333"
       spacingy="1.0583333"
       empspacing="2" />
  </sodipodi:namedview>
  <metadata
     id="metadata5">
    <rdf:RDF>
      <cc:Work
         rdf:about="">
        <dc:format>image/svg+xml</dc:format>
        <dc:type
           rdf:resource="http://purl.org/dc/dcmitype/StillImage" />
        <dc:title />
      </cc:Work>
    </rdf:RDF>
  </metadata>
  <g
     inkscape:label="Layer 1"
     inkscape:groupmode="layer"
     id="layer1"
     transform="translate(0,-263.13332)">
    <g
       id="g1597">
      <g
         id="g884"
         transform="translate(-6.239929)">
        <path
           sodipodi:nodetypes="csccccccccccccccccc"
           inkscape:connector-curvature="0"
           style="opacity:1;fill:#000000;fill-opacity:1;stroke:none;stroke-width:4.5;stroke-linecap:round;stroke-linejoin:round;stroke-miterlimit:4;stroke-dasharray:none;stroke-dashoffset:0;stroke-opacity:1"
           d="M 55.470703,0 C 37.860203,-1.5818369e-4 23.583985,13.767132 23.583984,30.75 23.583985,47.732868 37.860203,61.500158 55.470703,61.5 55.647183,61.4956 55.823621,61.48969 56,61.48242 V 128 h 16 l -2e-6,-99.999996 h 8 L 80,128 H 96 V 16 h 8 V 0 H 96 80 72 56 V 0.0234375 C 55.823638,0.01421147 55.6472,0.0063987 55.470703,0 Z"
           transform="matrix(0.26458333,0,0,0.26458333,0,263.13332)"
           id="rect1427" />
        <path
           sodipodi:type="inkscape:offset"
           inkscape:radius="-4.0000038"
           inkscape:original="M 55.470703 0 A 31.886422 30.750001 0 0 0 23.583984 30.75 A 31.886422 30.750001 0 0 0 55.470703 61.5 A 31.886422 30.750001 0 0 0 56 61.482422 L 56 128 L 72 128 L 72 16 L 80 16 L 80 128 L 96 128 L 96 16 L 104 16 L 104 0 L 96 0 L 80 0 L 72 0 L 56 0 L 56 0.0234375 A 31.886422 30.750001 0 0 0 55.470703 0 z "
           style="opacity:1;fill:url(#linearGradient1583);fill-opacity:1;stroke:none;stroke-width:4.5;stroke-linecap:round;stroke-linejoin:round;stroke-miterlimit:4;stroke-dasharray:none;stroke-dashoffset:0;stroke-opacity:1"
           id="path1442"
           d="m 56.392578,4 a 4.0004038,4.0004038 0 0 1 -0.601562,0.017578 c -0.116604,-0.0061 -0.232935,-0.010931 -0.34961,-0.015625 -7.328049,0.00773 -14.599496,2.923451 -19.742187,7.8828129 -5.149578,4.966002 -8.115234,11.900761 -8.115235,18.865234 10e-7,6.964473 2.965657,13.899232 8.115235,18.865234 5.146796,4.96332 12.425776,7.879727 19.759765,7.882813 0.12525,-0.0035 0.251767,-0.0066 0.376954,-0.01172 A 4.0004038,4.0004038 0 0 1 60,61.482422 V 124 h 8 V 16 a 4.0004038,4.0004038 0 0 1 4,-4 h 8 a 4.0004038,4.0004038 0 0 1 4,4 v 108 h 8 V 16 a 4.0004038,4.0004038 0 0 1 4,-4 h 4 V 4 H 96 80 72 Z"
           transform="matrix(0.26458333,0,0,0.26458333,0,263.13332)" />
        <path
           sodipodi:nodetypes="cccssscccccccccccccccccccc"
           inkscape:connector-curvature="0"
           style="opacity:0.56999966;fill:url(#linearGradient1571);fill-opacity:1;stroke:none;stroke-width:4.5;stroke-linecap:round;stroke-linejoin:round;stroke-miterlimit:4;stroke-dasharray:none;stroke-dashoffset:0;stroke-opacity:1"
           d="M 56.392578,4 C 56.192783,4.020956 55.991694,4.026832 55.791016,4.017578 55.674412,4.011478 55.558081,4.006647 55.441406,4.001953 48.113357,4.009683 40.84191,6.9254037 35.699219,11.884766 30.549641,16.850768 27.583985,23.785527 27.583984,30.75 c 10e-7,6.964473 2.965657,13.899232 8.115235,18.865234 5.146796,4.96332 12.425776,7.879727 19.759765,7.882813 0.12525,-0.0035 0.251767,-0.0066 0.376954,-0.01172 2.271285,-0.093 4.163516,1.722906 4.164062,3.996094 v 2.378906 c 1.330903,0.0749 2.664889,0.121149 4,0.138672 1.334459,-0.0032 2.668444,-0.03514 4,-0.0957 l -2e-6,-35.904293 c 2.23e-4,-2.209047 1.790954,-3.999778 4,-4 h 8 c 2.209047,2.22e-4 3.999778,1.790953 4,4 L 84,61.738281 c 2.735854,-0.611871 5.408583,-1.349873 8,-2.208984 V 16 c 2.23e-4,-2.209047 1.790953,-3.999777 4,-4 h 4 V 4 H 96 80 72 Z"
           transform="matrix(0.26458333,0,0,0.26458333,0,263.13332)"
           id="path1560" />
        <path
           sodipodi:nodetypes="cccc"
           transform="matrix(0.26458333,0,0,0.26458333,9.9574603,262.94066)"
           id="path1573"
           d="m 67.757187,0.8390721 -3.535535,4.1542524 -1.85615,-0.265166 z"
           style="fill:url(#linearGradient1575);fill-rule:evenodd;filter:url(#e)"
           inkscape:connector-curvature="0" />
        <path
           sodipodi:nodetypes="cccccsssccccccsssccccccccccccccccccccccccccccccccccccccccccccccccccccccc"
           inkscape:connector-curvature="0"
           style="opacity:0.56999966;fill:#ffffff;fill-opacity:1;stroke:none;stroke-width:4.5;stroke-linecap:round;stroke-linejoin:round;stroke-miterlimit:4;stroke-dasharray:none;stroke-dashoffset:0;stroke-opacity:1"
           d="m 57.150391,3.6308594 0.01172,0.234375 C 57.001672,3.7379026 56.806004,3.6629079 56.601562,3.6503906 c -0.123747,-0.00647 -0.243793,-0.01285 -0.361328,-0.017578 -0.01432,-3.077e-4 -0.02865,-3.077e-4 -0.04297,0 -7.59258,0.00801 -15.092859,3.0117638 -20.433594,8.1621094 -5.346309,5.155721 -8.421874,12.337609 -8.421875,19.585937 10e-7,7.248328 3.075566,14.430217 8.421875,19.585938 5.345,5.154457 12.854338,8.158911 20.453125,8.162109 0.0091,1.25e-4 0.01823,1.25e-4 0.02734,0 0.12293,-0.0034 0.254415,-0.0061 0.390625,-0.01172 l -0.06445,-1.591797 c -0.243073,-0.03554 -0.488903,-0.04862 -0.734374,-0.03906 -0.125187,0.0052 -0.251704,0.0082 -0.376954,0.01172 C 48.124995,57.494961 40.846015,54.578554 35.699219,49.615234 30.549641,44.649232 27.583985,37.714473 27.583984,30.75 c 10e-7,-6.964473 2.965657,-13.899232 8.115235,-18.865234 5.142691,-4.9593625 12.414138,-7.8750821 19.742187,-7.8828129 0.116675,0.00469 0.233006,0.00953 0.34961,0.015625 0.200678,0.00925 0.401767,0.00338 0.601562,-0.017578 H 72 h 8 16 4 V 12 h -4 c -0.0059,-1.3e-5 -0.01172,-1.3e-5 -0.01758,0 -0.531157,0.653273 -0.06657,1.630432 0.77539,1.630859 h 4 c 0.55229,2e-6 1,-0.447714 1,-1 V 4.6308594 c 0,-0.5522855 -0.44771,-1.0000019 -1,-1 h -4 -16 -8 z M 71.98242,24.000004 c -0.531156,0.653272 -0.06657,1.630431 0.77539,1.630859 h 8 c 0.641166,-0.01562 1.102087,-0.622241 0.945313,-1.24414 -0.532297,-0.25277 -1.113863,-0.384823 -1.703125,-0.386719 h -8 c -0.0059,-1.3e-5 -0.01172,-1.3e-5 -0.01758,0 z m -3.277344,3.65625 c -0.272631,0.01477 -0.527367,0.140375 -0.705078,0.347656 L 68,63.904297 c -1.331556,0.06056 -2.665541,0.09248 -4,0.0957 -1.335111,-0.01752 -2.669097,-0.06377 -4,-0.138672 v -2.378906 c 6e-6,-0.0039 6e-6,-0.0078 0,-0.01172 -0.154048,0.17889 -0.239839,0.406513 -0.242188,0.642578 v 2.378907 c 1.83e-4,0.530147 0.414064,0.96802 0.94336,0.998046 1.345164,0.0757 2.693623,0.122915 4.042969,0.140625 0.0052,4.1e-5 0.01042,4.1e-5 0.01563,0 1.348682,-0.0033 2.69717,-0.03645 4.042968,-0.09766 0.533913,-0.02401 0.954576,-0.463595 0.955078,-0.998047 l -2e-6,-35.904293 c -0.01352,-0.563507 -0.489858,-1.004498 -1.052734,-0.974609 z M 92.705078,15.65625 C 92.432447,15.671021 92.17771,15.796626 92,16.003906 v 43.525391 c -2.591417,0.859111 -5.264146,1.597113 -8,2.208984 l -2e-6,-33.738277 c 1.6e-5,-0.0065 1.6e-5,-0.01302 0,-0.01953 -0.155783,0.180932 -0.24169,0.411632 -0.242188,0.65039 l 2e-6,33.738278 c -5.03e-4,0.640834 0.593436,1.116747 1.21875,0.976562 2.766565,-0.61874 5.472708,-1.366748 8.095704,-2.236328 0.409231,-0.13556 0.685524,-0.51812 0.685546,-0.949219 V 16.630859 c -0.01352,-0.563507 -0.489858,-1.004498 -1.052734,-0.974609 z"
           transform="matrix(0.26458333,0,0,0.26458333,0,263.13332)"
           id="path1587" />
      </g>
      <path
         style="display:inline;fill:#ffffff;fill-opacity:0.84926471;fill-rule:evenodd;stroke:none;stroke-width:15.99999905;stroke-linecap:round;stroke-linejoin:round;stroke-miterlimit:4;stroke-dasharray:none;stroke-opacity:1"
         d="M 72.416016 64.259766 L 56.416016 80.259766 L 56.416016 111.74023 L 72.416016 127.74023 L 72.416016 64.259766 z M 48.416016 90.664062 A 16.494068 16.494068 0 0 0 48.416016 101.36133 L 48.416016 90.664062 z "
         transform="matrix(0.26458333,0,0,0.26458333,0,263.13332)"
         id="path886" />
      <g
         id="g877"
         transform="matrix(8,0,0,8,-865.71664,-1410.1332)">
        <path
           sodipodi:nodetypes="cccccccc"
           id="path4814"
           d="m 112.18333,212.06873 v 0.52917 H 111.125 v 0.52917 l -0.79375,-0.79375 0.79375,-0.79375 v 0.52916 z"
           style="display:inline;fill:none;fill-opacity:1;fill-rule:evenodd;stroke:url(#radialGradient4896);stroke-width:0.52916664;stroke-linecap:round;stroke-linejoin:round;stroke-miterlimit:4;stroke-dasharray:none;stroke-opacity:1"
           inkscape:connector-curvature="0" />
        <path
           style="display:inline;fill:url(#linearGradient4894);fill-opacity:1;fill-rule:evenodd;stroke:none;stroke-width:0.26458332px;stroke-linecap:butt;stroke-linejoin:miter;stroke-opacity:1"
           d="m 112.18333,212.06873 v 0.52917 H 111.125 v 0.52917 l -0.79375,-0.79375 0.79375,-0.79375 v 0.52916 z"
           id="path4816"
           sodipodi:nodetypes="cccccccc"
           inkscape:connector-curvature="0" />
        <path
           sodipodi:nodetypes="cccccc"
           id="path4818"
           d="m 112.18333,212.06873 v 0.26459 h -1.85208 l 0.79375,-0.79375 v 0.52916 z"
           style="display:inline;fill:url(#linearGradient4892);fill-opacity:1;fill-rule:evenodd;stroke:none;stroke-width:0.26458332px;stroke-linecap:butt;stroke-linejoin:miter;stroke-opacity:1"
           inkscape:connector-curvature="0" />
      </g>
    </g>
  </g>
</svg>
